X: 74
T: Miss Tashis Maggot
%R: reel, jig
B: Chas & Sam Thompson "Twenty Four Country Dances for the Year 1776", London 1776, p.37 #2
F: http://www.vwml.org/browse/browse-collections-dance-tune-books/browse-thompsons1776#
Z: 2014 John Chambers <jc:trillian.mit.edu> (added dance description)
N: Added "(3" to all the triplets.  This tune is written as a reel, but is better notated as a jig.
M: 2/4
L: 1/8
K: D
% - - - - - - - - - - - - - - - - - - - - - - - - - - - - -
|:\
d2 (f>a) | e2 (g>b) | (3(bg)e (3(afd) | e2 d2 |\
g>be>g | f>ad>f | g2 Tf2 | e4 :|
|:\
e2 ed | e>f g2 | g>ba>g | Tf2 e2 |\
((3bg)e ((3eg)b | (3(af)d (3(df)a | f2 Te2 | d4 :|
% - - - - - - - - - - Dance description - - - - - - - - - -
%%begintext align
%% Half right & left .| the same back again :|
%% right hands across quite round .|| left hands
%% back again :|| 1st Man sets to the 2d Wo. and
%% turn .| 1st Wo. do the same with the 2d Man :|. lead down
%% 1 Cu. up again cast off .||. right & left at top :||.
%%endtext

%%sep 1 1 500
%%sep 1 1 500
